dist/images/subtract.svg

<svg width="114" height="156" viewBox="0 0 114 156" fill="none" xmlns="http://www.w3.org/2000/svg">
<foreignObject x="-7.68096" y="-7.68096" width="128.741" height="170.638"><div xmlns="http://www.w3.org/1999/xhtml" style="backdrop-filter:blur(3.85px);clip-path:url(#bgblur_0_202_299_clip_path);height:100%;width:100%"></div></foreignObject><g data-figma-bg-blur-radius="7.7">
<mask id="path-1-inside-1_202_299" fill="white">
<path fill-rule="evenodd" clip-rule="evenodd" d="M7.90271 0.257927C3.5379 0.268651 0.00820491 3.81573 0.0189285 8.18055L0.360902 147.374C0.371625 151.738 3.91871 155.268 8.28352 155.257L105.477 155.019C109.842 155.008 113.371 151.461 113.361 147.096L113.019 7.90293C113.008 3.53811 109.461 0.00841661 105.096 0.0191402L7.90271 0.257927ZM30.858 14.7016C28.2391 14.708 26.1213 16.8363 26.1278 19.4551C26.1342 22.074 28.2624 24.1919 30.8813 24.1854L82.2522 24.0592C84.871 24.0528 86.9889 21.9245 86.9824 19.3056C86.976 16.6867 84.8477 14.5689 82.2289 14.5754L30.858 14.7016Z"/>
</mask>
<path fill-rule="evenodd" clip-rule="evenodd" d="M7.90271 0.257927C3.5379 0.268651 0.00820491 3.81573 0.0189285 8.18055L0.360902 147.374C0.371625 151.738 3.91871 155.268 8.28352 155.257L105.477 155.019C109.842 155.008 113.371 151.461 113.361 147.096L113.019 7.90293C113.008 3.53811 109.461 0.00841661 105.096 0.0191402L7.90271 0.257927ZM30.858 14.7016C28.2391 14.708 26.1213 16.8363 26.1278 19.4551C26.1342 22.074 28.2624 24.1919 30.8813 24.1854L82.2522 24.0592C84.871 24.0528 86.9889 21.9245 86.9824 19.3056C86.976 16.6867 84.8477 14.5689 82.2289 14.5754L30.858 14.7016Z" fill="#0039C8" fill-opacity="0.5"/>
<path d="M0.0189285 8.18055L1.01893 8.17809L0.0189285 8.18055ZM0.360902 147.374L-0.639095 147.376L0.360902 147.374ZM113.361 147.096L112.361 147.098L113.361 147.096ZM113.019 7.90293L114.019 7.90047L113.019 7.90293ZM30.858 14.7016L30.8605 15.7016L30.858 14.7016ZM82.2289 14.5754L82.2264 13.5754L82.2289 14.5754ZM1.01893 8.17809C1.00956 4.36555 4.09264 1.26729 7.90517 1.25792L7.90026 -0.74207C2.98316 -0.72999 -0.993149 3.2659 -0.981069 8.183L1.01893 8.17809ZM1.3609 147.371L1.01893 8.17809L-0.981069 8.183L-0.639095 147.376L1.3609 147.371ZM8.28107 154.257C4.46853 154.267 1.37027 151.184 1.3609 147.371L-0.639095 147.376C-0.627015 152.293 3.36888 156.27 8.28598 156.257L8.28107 154.257ZM105.474 154.019L8.28107 154.257L8.28598 156.257L105.479 156.019L105.474 154.019ZM112.361 147.098C112.37 150.911 109.287 154.009 105.474 154.019L105.479 156.019C110.396 156.007 114.373 152.011 114.361 147.094L112.361 147.098ZM112.019 7.90538L112.361 147.098L114.361 147.094L114.019 7.90047L112.019 7.90538ZM105.098 1.01914C108.911 1.00977 112.009 4.09285 112.019 7.90538L114.019 7.90047C114.007 2.98337 110.011 -0.992937 105.094 -0.980857L105.098 1.01914ZM7.90517 1.25792L105.098 1.01914L105.094 -0.980857L7.90026 -0.74207L7.90517 1.25792ZM27.1278 19.4527C27.1227 17.3861 28.7939 15.7066 30.8605 15.7016L30.8556 13.7016C27.6844 13.7094 25.12 16.2864 25.1278 19.4576L27.1278 19.4527ZM30.8789 23.1854C28.8123 23.1905 27.1328 21.5193 27.1278 19.4527L25.1278 19.4576C25.1356 22.6288 27.7126 25.1932 30.8838 25.1854L30.8789 23.1854ZM82.2497 23.0592L30.8789 23.1854L30.8838 25.1854L82.2546 25.0592L82.2497 23.0592ZM85.9824 19.3081C85.9875 21.3747 84.3163 23.0541 82.2497 23.0592L82.2546 25.0592C85.4258 25.0514 87.9902 22.4744 87.9824 19.3032L85.9824 19.3081ZM82.2313 15.5754C84.2979 15.5703 85.9774 17.2415 85.9824 19.3081L87.9824 19.3032C87.9746 16.132 85.3976 13.5676 82.2264 13.5754L82.2313 15.5754ZM30.8605 15.7016L82.2313 15.5754L82.2264 13.5754L30.8556 13.7016L30.8605 15.7016Z" fill="#4076FC" mask="url(#path-1-inside-1_202_299)"/>
</g>
<defs>
<clipPath id="bgblur_0_202_299_clip_path"><path transform="translate(7.68096 7.68096)" fill-rule="evenodd" clip-rule="evenodd" d="M7.90271 0.257927C3.5379 0.268651 0.00820491 3.81573 0.0189285 8.18055L0.360902 147.374C0.371625 151.738 3.91871 155.268 8.28352 155.257L105.477 155.019C109.842 155.008 113.371 151.461 113.361 147.096L113.019 7.90293C113.008 3.53811 109.461 0.00841661 105.096 0.0191402L7.90271 0.257927ZM30.858 14.7016C28.2391 14.708 26.1213 16.8363 26.1278 19.4551C26.1342 22.074 28.2624 24.1919 30.8813 24.1854L82.2522 24.0592C84.871 24.0528 86.9889 21.9245 86.9824 19.3056C86.976 16.6867 84.8477 14.5689 82.2289 14.5754L30.858 14.7016Z"/>
</clipPath></defs>
</svg>

<svg xmlns="http://www.w3.org/2000/svg" width="114" height="156" fill="none"><foreignObject width="128.741" height="170.638" x="-7.681" y="-7.681"><div xmlns="http://www.w3.org/1999/xhtml" style="backdrop-filter:blur(3.85px);clip-path:url(#a);height:100%;width:100%"/></foreignObject><g data-figma-bg-blur-radius="7.7"><mask id="b" fill="#fff"><path fill-rule="evenodd" d="M7.903.258A7.903 7.903 0 0 0 .019 8.18L.36 147.374a7.903 7.903 0 0 0 7.923 7.883l97.193-.238a7.904 7.904 0 0 0 7.884-7.923l-.342-139.193a7.904 7.904 0 0 0-7.923-7.884zm22.955 14.444a4.742 4.742 0 1 0 .023 9.483l51.371-.126a4.742 4.742 0 0 0-.023-9.484z" clip-rule="evenodd"/></mask><path fill="#0039C8" fill-opacity=".5" fill-rule="evenodd" d="M7.903.258A7.903 7.903 0 0 0 .019 8.18L.36 147.374a7.903 7.903 0 0 0 7.923 7.883l97.193-.238a7.904 7.904 0 0 0 7.884-7.923l-.342-139.193a7.904 7.904 0 0 0-7.923-7.884zm22.955 14.444a4.742 4.742 0 1 0 .023 9.483l51.371-.126a4.742 4.742 0 0 0-.023-9.484z" clip-rule="evenodd"/><path fill="#4076FC" d="m.019 8.18 1-.002zM.36 147.375l-1 .002zm113-.278-1 .002zm-.342-139.193 1-.003zm-82.161 6.799.002 1zm51.37-.127-.002-1zM1.019 8.178a6.903 6.903 0 0 1 6.887-6.92l-.005-2A8.903 8.903 0 0 0-.98 8.183zm.343 139.193L1.019 8.178l-2 .005.342 139.193zm6.92 6.886a6.9 6.9 0 0 1-6.92-6.886l-2 .005a8.9 8.9 0 0 0 8.925 8.881zm97.193-.238-97.193.238.005 2 97.193-.238zm6.887-6.921a6.905 6.905 0 0 1-6.887 6.921l.005 2a8.904 8.904 0 0 0 8.882-8.925zm-.342-139.193.342 139.193 2-.004L114.019 7.9zm-6.921-6.886a6.904 6.904 0 0 1 6.921 6.886l2-.005a8.903 8.903 0 0 0-8.925-8.88zm-97.193.239 97.193-.239-.004-2L7.9-.742zm19.223 18.195a3.74 3.74 0 0 1 3.732-3.751l-.004-2a5.74 5.74 0 0 0-5.728 5.756zm3.75 3.732a3.74 3.74 0 0 1-3.75-3.732l-2 .005a5.74 5.74 0 0 0 5.756 5.727zm51.372-.126-51.371.126.005 2 51.37-.126zm3.732-3.75a3.74 3.74 0 0 1-3.732 3.75l.005 2a5.74 5.74 0 0 0 5.727-5.756zm-3.75-3.734a3.74 3.74 0 0 1 3.75 3.733l2-.005a5.74 5.74 0 0 0-5.756-5.728zm-51.371.127 51.37-.127-.005-2-51.37.127z" mask="url(#b)"/></g><defs><clipPath id="a"><path fill-rule="evenodd" d="M15.584 7.939A7.903 7.903 0 0 0 7.7 15.862l.342 139.193a7.903 7.903 0 0 0 7.922 7.883l97.194-.238a7.904 7.904 0 0 0 7.884-7.923L120.7 15.584a7.904 7.904 0 0 0-7.923-7.884zm22.955 14.444a4.742 4.742 0 1 0 .023 9.483l51.371-.126a4.742 4.742 0 0 0-.023-9.484z" clip-rule="evenodd"/></clipPath></defs></svg>
